mimes/32/x-office-spreadsheet-template.svg

<?xml version="1.0" encoding="UTF-8" standalone="no"?>
<svg
   xmlns:dc="http://purl.org/dc/elements/1.1/"
   xmlns:cc="http://creativecommons.org/ns#"
   xmlns:rdf="http://www.w3.org/1999/02/22-rdf-syntax-ns#"
   xmlns:svg="http://www.w3.org/2000/svg"
   xmlns="http://www.w3.org/2000/svg"
   xmlns:xlink="http://www.w3.org/1999/xlink"
   xmlns:sodipodi="http://sodipodi.sourceforge.net/DTD/sodipodi-0.dtd"
   xmlns:inkscape="http://www.inkscape.org/namespaces/inkscape"
   version="1.1"
   width="32"
   height="32"
   id="svg3182"
   inkscape:version="0.91 r13725"
   sodipodi:docname="x-office-spreadsheet-template.svg">
  <sodipodi:namedview
     pagecolor="#ffffff"
     bordercolor="#666666"
     borderopacity="1"
     objecttolerance="10"
     gridtolerance="10"
     guidetolerance="10"
     inkscape:pageopacity="0"
     inkscape:pageshadow="2"
     inkscape:window-width="640"
     inkscape:window-height="480"
     id="namedview6680" />
  <defs
     id="defs3184">
    <linearGradient
       id="linearGradient3977">
      <stop
         id="stop3979"
         style="stop-color:#ffffff;stop-opacity:1"
         offset="0" />
      <stop
         id="stop3981"
         style="stop-color:#ffffff;stop-opacity:0.23529412"
         offset="0.03626217" />
      <stop
         id="stop3983"
         style="stop-color:#ffffff;stop-opacity:0.15686275"
         offset="0.95056331" />
      <stop
         id="stop3985"
         style="stop-color:#ffffff;stop-opacity:0.39215687"
         offset="1" />
    </linearGradient>
    <linearGradient
       id="linearGradient3600-4">
      <stop
         id="stop3602-7"
         style="stop-color:#f4f4f4;stop-opacity:1"
         offset="0" />
      <stop
         id="stop3604-6"
         style="stop-color:#dbdbdb;stop-opacity:1"
         offset="1" />
    </linearGradient>
    <linearGradient
       id="linearGradient3104-5">
      <stop
         id="stop3106-6"
         style="stop-color:#a0a0a0;stop-opacity:1"
         offset="0" />
      <stop
         id="stop3108-9"
         style="stop-color:#bebebe;stop-opacity:1"
         offset="1" />
    </linearGradient>
    <linearGradient
       id="linearGradient5060">
      <stop
         id="stop5062"
         style="stop-color:#000000;stop-opacity:1"
         offset="0" />
      <stop
         id="stop5064"
         style="stop-color:#000000;stop-opacity:0"
         offset="1" />
    </linearGradient>
    <linearGradient
       id="linearGradient5048">
      <stop
         id="stop5050"
         style="stop-color:#000000;stop-opacity:0"
         offset="0" />
      <stop
         id="stop5056"
         style="stop-color:#000000;stop-opacity:1"
         offset="0.5" />
      <stop
         id="stop5052"
         style="stop-color:#000000;stop-opacity:0"
         offset="1" />
    </linearGradient>
    <linearGradient
       x1="23.99999"
       y1="5.5641499"
       x2="23.99999"
       y2="43"
       id="linearGradient3191"
       xlink:href="#linearGradient3977"
       gradientUnits="userSpaceOnUse"
       gradientTransform="matrix(0.56756757,0,0,0.72972971,2.378382,-2.5135063)" />
    <linearGradient
       x1="25.132275"
       y1="0.98520643"
       x2="25.132275"
       y2="47.013336"
       id="linearGradient3194"
       xlink:href="#linearGradient3600-4"
       gradientUnits="userSpaceOnUse"
       gradientTransform="matrix(0.65714319,0,0,0.63012397,0.228556,-1.0896478)" />
    <linearGradient
       x1="-51.786404"
       y1="50.786446"
       x2="-51.786404"
       y2="2.9062471"
       id="linearGradient3196"
       xlink:href="#linearGradient3104-5"
       gradientUnits="userSpaceOnUse"
       gradientTransform="matrix(0.53064102,0,0,0.58970216,39.269585,-1.7919079)" />
    <radialGradient
       cx="605.71429"
       cy="486.64789"
       r="117.14286"
       fx="605.71429"
       fy="486.64789"
       id="radialGradient3199"
       xlink:href="#linearGradient5060"
       gradientUnits="userSpaceOnUse"
       gradientTransform="matrix(0.01566318,0,0,0.00823529,17.610433,25.980565)" />
    <radialGradient
       cx="605.71429"
       cy="486.64789"
       r="117.14286"
       fx="605.71429"
       fy="486.64789"
       id="radialGradient3202"
       xlink:href="#linearGradient5060"
       gradientUnits="userSpaceOnUse"
       gradientTransform="matrix(-0.01566318,0,0,0.00823529,14.389566,25.980565)" />
    <linearGradient
       x1="302.85715"
       y1="366.64789"
       x2="302.85715"
       y2="609.50507"
       id="linearGradient3205"
       xlink:href="#linearGradient5048"
       gradientUnits="userSpaceOnUse"
       gradientTransform="matrix(0.04576928,0,0,0.00823529,-0.5423243,25.980548)" />
    <linearGradient
       id="linearGradient3242-7-3-8-0-4-58-06-2">
      <stop
         id="stop3244-5-8-5-6-4-3-8-7"
         style="stop-color:#cdf87e;stop-opacity:1"
         offset="0" />
      <stop
         id="stop3246-9-5-1-5-3-0-7-3"
         style="stop-color:#a2e34f;stop-opacity:1"
         offset="0.26238" />
      <stop
         id="stop3248-7-2-0-7-5-35-9-6"
         style="stop-color:#68b723;stop-opacity:1"
         offset="0.66093999" />
      <stop
         id="stop3250-8-2-8-5-6-40-4-0"
         style="stop-color:#1d7e0d;stop-opacity:1"
         offset="1" />
    </linearGradient>
    <radialGradient
       cx="11.789304"
       cy="15.03535"
       r="12.5"
       fx="11.789304"
       fy="15.03535"
       id="radialGradient3321"
       xlink:href="#linearGradient3242-7-3-8-0-4-58-06-2"
       gradientUnits="userSpaceOnUse"
       gradientTransform="matrix(0,3.6040583,-5.548623,0,89.067907,-43.601673)" />
    <linearGradient
       x1="42.783993"
       y1="32.537422"
       x2="38.972309"
       y2="18.12406"
       id="linearGradient3273"
       xlink:href="#linearGradient3412"
       gradientUnits="userSpaceOnUse"
       gradientTransform="matrix(1,0,0,-1,-16.999999,48.999999)" />
    <linearGradient
       id="linearGradient3412">
      <stop
         id="stop3414"
         style="stop-color:#fcfcfc;stop-opacity:1"
         offset="0" />
      <stop
         id="stop3416"
         style="stop-color:#cbcdd9;stop-opacity:1"
         offset="1" />
    </linearGradient>
    <linearGradient
       id="linearGradient3428">
      <stop
         id="stop3430"
         style="stop-color:#ffffff;stop-opacity:1"
         offset="0" />
      <stop
         id="stop3432"
         style="stop-color:#ffffff;stop-opacity:0"
         offset="1" />
    </linearGradient>
    <linearGradient
       x1="40.105618"
       y1="31.65719"
       x2="33.811069"
       y2="18.353575"
       id="linearGradient3182"
       xlink:href="#linearGradient3428"
       gradientUnits="userSpaceOnUse"
       gradientTransform="matrix(0.99749995,0,0,-0.99749995,-16.923748,48.896056)" />
  </defs>
  <metadata
     id="metadata3187">
    <rdf:RDF>
      <cc:Work
         rdf:about="">
        <dc:format>image/svg+xml</dc:format>
        <dc:type
           rdf:resource="http://purl.org/dc/dcmitype/StillImage" />
        <dc:title />
      </cc:Work>
    </rdf:RDF>
  </metadata>
  <rect
     width="22.100021"
     height="2"
     x="4.9499893"
     y="29"
     id="rect2879"
     style="opacity:0.15;fill:url(#linearGradient3205);fill-opacity:1;fill-rule:nonzero;stroke:none;stroke-width:1;marker:none;visibility:visible;display:inline;overflow:visible" />
  <path
     d="m 4.9499887,29.000086 c 0,0 0,1.99989 0,1.99989 -0.806615,0.0038 -1.950002,-0.448074 -1.950002,-1.000074 0,-0.552 0.900121,-0.999816 1.950002,-0.999816 z"
     id="path2881"
     style="opacity:0.15;fill:url(#radialGradient3202);fill-opacity:1;fill-rule:nonzero;stroke:none;stroke-width:1;marker:none;visibility:visible;display:inline;overflow:visible" />
  <path
     d="m 27.050011,29.000086 c 0,0 0,1.99989 0,1.99989 0.806614,0.0038 1.950002,-0.448074 1.950002,-1.000074 0,-0.552 -0.900122,-0.999816 -1.950002,-0.999816 z"
     id="path2883"
     style="opacity:0.15;fill:url(#radialGradient3199);fill-opacity:1;fill-rule:nonzero;stroke:none;stroke-width:1;marker:none;visibility:visible;display:inline;overflow:visible" />
  <path
     d="m 4.499961,0.49996093 c 5.270482,0 23.000037,0.00185 23.000037,0.00185 l 2.8e-5,28.99822807 c 0,0 -15.333376,0 -23.000065,0 0,-9.666692 0,-19.333383 0,-29.00007387 z"
     id="path4160-3"
     style="fill:url(#linearGradient3194);fill-opacity:1;stroke:url(#linearGradient3196);stroke-width:0.99992186;stroke-linecap:butt;stroke-linejoin:round;stroke-miterlimit:4;stroke-opacity:1;stroke-dasharray:none;stroke-dashoffset:0;display:inline" />
  <path
     d="m 26.5,28.5 -21,0 0,-27 21,0 z"
     id="rect6741-1"
     style="fill:none;stroke:url(#linearGradient3191);stroke-width:0.99999994;stroke-linecap:round;stroke-linejoin:round;stroke-miterlimit:4;stroke-opacity:1;stroke-dasharray:none;stroke-dashoffset:0" />
  <path
     d="m 11,5 0,2.75 -3,0 0,18.25 4,0 0,-17 12,0 0,-4 z"
     id="path6928"
     style="color:#000000;fill:url(#radialGradient3321);fill-opacity:1;fill-rule:nonzero;stroke:none;marker:none;visibility:visible;display:inline;overflow:visible;enable-background:accumulate" />
  <rect
     width="4"
     height="4"
     x="8.0004892"
     y="5"
     id="rect3775"
     style="color:#000000;fill:#c4ec94;fill-opacity:1;fill-rule:nonzero;stroke:none;marker:none;visibility:visible;display:inline;overflow:visible;enable-background:accumulate" />
  <path
     d="M 8.5004891,6.5093408 22.447497,6.4906566"
     id="path4743"
     style="opacity:0.2;fill:#ffffff;fill-rule:evenodd;stroke:#ffffff;stroke-width:1;stroke-linecap:square;stroke-linejoin:round;stroke-miterlimit:4;stroke-opacity:1;stroke-dasharray:none;display:inline" />
  <path
     d="m 8.5010796,5.50108 14.9978394,0 0,19.997839 -14.9978394,0 z M 11.500489,5.5 l 0,19.999996 m 11.832899,-17.0000021 -14.6667754,0"
     id="rect3580"
     style="opacity:0.4;color:#000000;fill:none;stroke:#0a3900;stroke-width:0.99999994;stroke-linecap:round;stroke-linejoin:miter;stroke-miterlimit:4;stroke-opacity:1;stroke-dasharray:none;stroke-dashoffset:0;marker:none;visibility:visible;display:inline;overflow:visible;enable-background:accumulate" />
  <path
     d="m 19.500489,6 0,19 m 3.49951,-1.5 -13.9999976,0 m 13.9999976,-3.000001 -13.9999976,0 m 13.9999996,-3 -14.0000023,0 m 14.0000003,-3 -13.9999977,0 m 13.9999987,-3 -14,0 M 15.500489,6 l 0,19"
     id="path3185"
     style="color:#000000;fill:none;stroke:#305d2c;stroke-width:0.99999994;stroke-linecap:butt;stroke-linejoin:miter;stroke-miterlimit:4;stroke-opacity:0.3241762;stroke-dasharray:none;stroke-dashoffset:0;marker:none;visibility:visible;display:inline;overflow:visible;enable-background:accumulate" />
  <g
     id="g3297">
    <path
       d="m 13.5,30.5 15,-15 0,15 -15,0 z m 6.999999,-3.000001 5,0 0,-4.999999 -5,4.999999 z"
       id="path3410"
       style="opacity:0.8;fill:url(#linearGradient3273);fill-opacity:1;fill-rule:evenodd;stroke:#83899a;stroke-width:1;stroke-linecap:butt;stroke-linejoin:miter;stroke-miterlimit:4;stroke-opacity:1;stroke-dasharray:none" />
    <path
       d="m 15.713203,29.538323 11.845312,-11.845312 0,11.845312 -11.845312,0 z"
       id="path3424"
       style="opacity:0.4;fill:none;stroke:url(#linearGradient3182);stroke-width:1;stroke-linecap:butt;stroke-linejoin:miter;stroke-miterlimit:4;stroke-opacity:1;stroke-dasharray:none" />
  </g>
</svg>

<svg xmlns="http://www.w3.org/2000/svg" xmlns:xlink="http://www.w3.org/1999/xlink" viewBox="0 0 32 32"><defs><linearGradient id="a"><stop offset="0" stop-color="#fff"/><stop offset=".036" stop-color="#fff" stop-opacity=".235"/><stop offset=".951" stop-color="#fff" stop-opacity=".157"/><stop offset="1" stop-color="#fff" stop-opacity=".392"/></linearGradient><linearGradient id="b"><stop offset="0" stop-color="#f4f4f4"/><stop offset="1" stop-color="#dbdbdb"/></linearGradient><linearGradient id="c"><stop offset="0" stop-color="#a0a0a0"/><stop offset="1" stop-color="#bebebe"/></linearGradient><linearGradient id="d"><stop offset="0"/><stop offset="1" stop-opacity="0"/></linearGradient><linearGradient id="e"><stop offset="0" stop-opacity="0"/><stop offset=".5"/><stop offset="1" stop-opacity="0"/></linearGradient><linearGradient x1="24" y1="5.564" x2="24" y2="43" id="n" xlink:href="#a" gradientUnits="userSpaceOnUse" gradientTransform="matrix(.56757 0 0 .72973 2.378 -2.514)"/><linearGradient x1="25.132" y1=".985" x2="25.132" y2="47.013" id="l" xlink:href="#b" gradientUnits="userSpaceOnUse" gradientTransform="matrix(.65714 0 0 .63012 .23 -1.09)"/><linearGradient x1="-51.786" y1="50.786" x2="-51.786" y2="2.906" id="m" xlink:href="#c" gradientUnits="userSpaceOnUse" gradientTransform="matrix(.53064 0 0 .5897 39.27 -1.792)"/><radialGradient cx="605.714" cy="486.648" r="117.143" fx="605.714" fy="486.648" id="k" xlink:href="#d" gradientUnits="userSpaceOnUse" gradientTransform="matrix(.01566 0 0 .00824 17.61 25.98)"/><radialGradient cx="605.714" cy="486.648" r="117.143" fx="605.714" fy="486.648" id="j" xlink:href="#d" gradientUnits="userSpaceOnUse" gradientTransform="matrix(-.01566 0 0 .00824 14.39 25.98)"/><linearGradient x1="302.857" y1="366.648" x2="302.857" y2="609.505" id="i" xlink:href="#e" gradientUnits="userSpaceOnUse" gradientTransform="matrix(.04577 0 0 .00824 -.542 25.98)"/><linearGradient id="f"><stop offset="0" stop-color="#cdf87e"/><stop offset=".262" stop-color="#a2e34f"/><stop offset=".661" stop-color="#68b723"/><stop offset="1" stop-color="#1d7e0d"/></linearGradient><radialGradient cx="11.789" cy="15.035" r="12.5" fx="11.789" fy="15.035" id="o" xlink:href="#f" gradientUnits="userSpaceOnUse" gradientTransform="matrix(0 3.60406 -5.54862 0 89.068 -43.602)"/><linearGradient x1="42.784" y1="32.537" x2="38.972" y2="18.124" id="p" xlink:href="#g" gradientUnits="userSpaceOnUse" gradientTransform="matrix(1 0 0 -1 -17 49)"/><linearGradient id="g"><stop offset="0" stop-color="#fcfcfc"/><stop offset="1" stop-color="#cbcdd9"/></linearGradient><linearGradient id="h"><stop offset="0" stop-color="#fff"/><stop offset="1" stop-color="#fff" stop-opacity="0"/></linearGradient><linearGradient x1="40.106" y1="31.657" x2="33.811" y2="18.354" id="q" xlink:href="#h" gradientUnits="userSpaceOnUse" gradientTransform="matrix(.9975 0 0 -.9975 -16.924 48.896)"/></defs><path opacity=".15" fill="url(#i)" overflow="visible" d="M4.95 29h22.1v2H4.95z"/><path d="M4.95 29v2c-.807.004-1.95-.448-1.95-1s.9-1 1.95-1z" opacity=".15" fill="url(#j)" overflow="visible"/><path d="M27.05 29v2c.807.004 1.95-.448 1.95-1s-.9-1-1.95-1z" opacity=".15" fill="url(#k)" overflow="visible"/><path d="M4.5.5l23 .002V29.5h-23V.5z" fill="url(#l)" stroke="url(#m)" stroke-linejoin="round"/><path d="M26.5 28.5h-21v-27h21z" fill="none" stroke="url(#n)" stroke-linecap="round" stroke-linejoin="round"/><path d="M11 5v2.75H8V26h4V9h12V5z" color="#000" fill="url(#o)" overflow="visible"/><path color="#000" fill="#c4ec94" overflow="visible" d="M8 5h4v4H8z"/><path d="M8.5 6.51l13.947-.02" opacity=".2" fill="#fff" fill-rule="evenodd" stroke="#fff" stroke-linecap="square" stroke-linejoin="round"/><path d="M8.5 5.5h15v20h-15zm3 0v20m11.833-17H8.667" opacity=".4" color="#000" fill="none" stroke="#0a3900" stroke-linecap="round" overflow="visible"/><path d="M19.5 6v19m3.5-1.5H9m14-3H9m14-3H9m14-3H9m14-3H9M15.5 6v19" color="#000" fill="none" stroke="#305d2c" stroke-opacity=".324" overflow="visible"/><path d="M13.5 30.5l15-15v15h-15zm7-3h5v-5l-5 5z" opacity=".8" fill="url(#p)" fill-rule="evenodd" stroke="#83899a"/><path d="M15.713 29.538L27.56 17.693v11.845H15.712z" opacity=".4" fill="none" stroke="url(#q)"/></svg>
